round/svg/assignment_ind.svg

<svg xmlns="http://www.w3.org/2000/svg" width="24" height="24"><path fill="none" d="M0 0h24v24H0V0z"/><g fill="currentColor"><path d="M19 3h-4.18C14.4 1.84 13.3 1 12 1s-2.4.84-2.82 2H5c-1.1 0-2 .9-2 2v14c0 1.1.9 2 2 2h14c1.1 0 2-.9 2-2V5c0-1.1-.9-2-2-2zm-7 0c.55 0 1 .45 1 1s-.45 1-1 1-1-.45-1-1 .45-1 1-1zm0 4c1.66 0 3 1.34 3 3s-1.34 3-3 3-3-1.34-3-3 1.34-3 3-3zm6 12H6v-1.4c0-2 4-3.1 6-3.1s6 1.1 6 3.1V19z"/></g></svg>

<?xml version="1.0" encoding="utf-8"?>
<!-- Generator: Adobe Illustrator 19.1.0, SVG Export Plug-In . SVG Version: 6.00 Build 0)  -->
<svg version="1.1" xmlns="http://www.w3.org/2000/svg" xmlns:xlink="http://www.w3.org/1999/xlink" x="0px" y="0px" width="24px"
	 height="24px" viewBox="0 0 24 24" enable-background="new 0 0 24 24" xml:space="preserve">
<g id="Header_x2F_BG" display="none">
	<rect x="-138" y="-138" display="inline" fill="#F1F1F2" width="520" height="520"/>
</g>
<g id="Bounding_Boxes">
	<g id="ui_x5F_spec_x5F_header_copy_3">
	</g>
	<path fill="none" d="M0,0h24v24H0V0z"/>
</g>
<g id="Rounded" fill="currentColor">
	<g id="ui_x5F_spec_x5F_header_copy_5">
	</g>
	<path d="M19,3h-4.18C14.4,1.84,13.3,1,12,1S9.6,1.84,9.18,3H5C3.9,3,3,3.9,3,5v14c0,1.1,0.9,2,2,2h14c1.1,0,2-0.9,2-2V5
		C21,3.9,20.1,3,19,3z M12,3c0.55,0,1,0.45,1,1s-0.45,1-1,1s-1-0.45-1-1S11.45,3,12,3z M12,7c1.66,0,3,1.34,3,3s-1.34,3-3,3
		s-3-1.34-3-3S10.34,7,12,7z M18,19H6v-1.4c0-2,4-3.1,6-3.1s6,1.1,6,3.1V19z"/>
</g>
<g id="Sharp" display="none">
	<g id="ui_x5F_spec_x5F_header_copy_4" display="inline">
	</g>
	<path display="inline" d="M21,3h-6.18C14.4,1.84,13.3,1,12,1S9.6,1.84,9.18,3H3v18h18V3z M12,3c0.55,0,1,0.45,1,1s-0.45,1-1,1
		s-1-0.45-1-1S11.45,3,12,3z M12,7c1.66,0,3,1.34,3,3s-1.34,3-3,3s-3-1.34-3-3S10.34,7,12,7z M18,19H6v-1.4c0-2,4-3.1,6-3.1
		s6,1.1,6,3.1V19z"/>
</g>
<g id="Outline" display="none">
	<g id="ui_x5F_spec_x5F_header" display="inline">
	</g>
	<g display="inline">
		<path d="M19,3h-4.18C14.4,1.84,13.3,1,12,1S9.6,1.84,9.18,3H5C3.9,3,3,3.9,3,5v14c0,1.1,0.9,2,2,2h14c1.1,0,2-0.9,2-2V5
			C21,3.9,20.1,3,19,3z M12,2.75c0.22,0,0.41,0.1,0.55,0.25c0.12,0.13,0.2,0.31,0.2,0.5c0,0.41-0.34,0.75-0.75,0.75
			s-0.75-0.34-0.75-0.75c0-0.19,0.08-0.37,0.2-0.5C11.59,2.85,11.78,2.75,12,2.75z M19,19H5V5h14V19z"/>
		<path d="M12,6c-1.65,0-3,1.35-3,3s1.35,3,3,3s3-1.35,3-3S13.65,6,12,6z M12,10c-0.55,0-1-0.45-1-1s0.45-1,1-1s1,0.45,1,1
			S12.55,10,12,10z"/>
		<path d="M6,16.47V18h12v-1.53c0-2.5-3.97-3.58-6-3.58S6,13.96,6,16.47z M8.31,16c0.69-0.56,2.38-1.12,3.69-1.12
			s3.01,0.56,3.69,1.12H8.31z"/>
	</g>
</g>
<g id="Duotone" display="none">
	<g id="ui_x5F_spec_x5F_header_copy_2" display="inline">
	</g>
	<g display="inline">
		<path opacity="0.3" d="M19,5H5v14h14V5z M12,6c1.65,0,3,1.35,3,3s-1.35,3-3,3s-3-1.35-3-3S10.35,6,12,6z M18,18H6v-1.53
			c0-2.5,3.97-3.58,6-3.58s6,1.08,6,3.58V18z"/>
		<path d="M20.66,3.88c-0.14-0.21-0.33-0.4-0.54-0.54c-0.11-0.07-0.22-0.13-0.34-0.18C19.54,3.06,19.28,3,19,3h-4.18
			C14.4,1.84,13.3,1,12,1S9.6,1.84,9.18,3H5C3.9,3,3,3.9,3,5v14c0,1.1,0.9,2,2,2h14c0.28,0,0.54-0.06,0.78-0.16
			c0.12-0.05,0.23-0.11,0.34-0.18c0.21-0.14,0.4-0.33,0.54-0.54C20.87,19.8,21,19.41,21,19V5C21,4.59,20.87,4.2,20.66,3.88z
			 M12,2.75c0.22,0,0.41,0.1,0.55,0.25c0.12,0.13,0.2,0.31,0.2,0.5c0,0.41-0.34,0.75-0.75,0.75s-0.75-0.34-0.75-0.75
			c0-0.19,0.08-0.37,0.2-0.5C11.59,2.85,11.78,2.75,12,2.75z M19,19H5V5h14V19z"/>
		<path d="M12,12c1.65,0,3-1.35,3-3s-1.35-3-3-3S9,7.35,9,9S10.35,12,12,12z M12,10c-0.55,0-1-0.45-1-1s0.45-1,1-1s1,0.45,1,1
			S12.55,10,12,10z"/>
		<path d="M12,12.88c-2.03,0-6,1.08-6,3.58V18h12v-1.53C18,13.96,14.03,12.88,12,12.88z M8.31,16c0.69-0.56,2.38-1.12,3.69-1.12
			s3.01,0.56,3.69,1.12H8.31z"/>
	</g>
</g>
<g id="Fill" display="none">
	<g id="ui_x5F_spec_x5F_header_copy" display="inline">
	</g>
	<path display="inline" d="M19,3h-4.18C14.4,1.84,13.3,1,12,1S9.6,1.84,9.18,3H5C3.9,3,3,3.9,3,5v14c0,1.1,0.9,2,2,2h14
		c1.1,0,2-0.9,2-2V5C21,3.9,20.1,3,19,3z M12,3c0.55,0,1,0.45,1,1s-0.45,1-1,1s-1-0.45-1-1S11.45,3,12,3z M12,7c1.66,0,3,1.34,3,3
		s-1.34,3-3,3s-3-1.34-3-3S10.34,7,12,7z M18,19H6v-1.4c0-2,4-3.1,6-3.1s6,1.1,6,3.1V19z"/>
</g>
<g id="nyt_x5F_exporter_x5F_info" display="none">
	<g display="inline">
		<path d="M3.28,4.28v7.02c0,0.52,0.01,1.1,0.05,1.5H2.38l-0.05-1.01H2.31c-0.32,0.65-1.03,1.14-1.98,1.14
			c-1.4,0-2.48-1.19-2.48-2.95c-0.01-1.93,1.19-3.12,2.6-3.12c0.89,0,1.49,0.42,1.75,0.89h0.02V4.28H3.28z M2.22,9.36
			c0-0.13-0.01-0.31-0.05-0.44C2.02,8.24,1.44,7.69,0.65,7.69c-1.09,0-1.74,0.96-1.74,2.24c0,1.18,0.58,2.15,1.72,2.15
			c0.71,0,1.35-0.47,1.55-1.26c0.04-0.14,0.05-0.29,0.05-0.46V9.36z"/>
		<path d="M5.62,10.09c0.02,1.43,0.94,2.01,1.99,2.01c0.76,0,1.21-0.13,1.61-0.3l0.18,0.76c-0.37,0.17-1.01,0.36-1.93,0.36
			c-1.79,0-2.85-1.18-2.85-2.93s1.03-3.13,2.72-3.13c1.9,0,2.4,1.67,2.4,2.73c0,0.22-0.02,0.38-0.04,0.49H5.62z M8.72,9.33
			c0.01-0.67-0.28-1.71-1.46-1.71c-1.07,0-1.54,0.98-1.62,1.71H8.72z"/>
		<path d="M16.53,9.95l-5.56,2.85v-0.83l4.73-2.35V9.6l-4.73-2.35V6.42l5.56,2.85V9.95z"/>
		<path d="M21.41,12.8l-0.08-0.73h-0.04c-0.32,0.46-0.95,0.86-1.77,0.86c-1.18,0-1.77-0.83-1.77-1.67c0-1.4,1.25-2.17,3.49-2.16
			V8.99c0-0.48-0.13-1.34-1.32-1.34c-0.54,0-1.1,0.17-1.51,0.43l-0.24-0.7c0.48-0.31,1.18-0.52,1.91-0.52
			c1.77,0,2.21,1.21,2.21,2.37v2.17c0,0.5,0.02,1,0.1,1.39H21.41z M21.26,9.84c-1.15-0.02-2.46,0.18-2.46,1.31
			c0,0.68,0.46,1.01,1,1.01c0.76,0,1.24-0.48,1.4-0.97c0.04-0.11,0.06-0.23,0.06-0.34V9.84z"/>
		<path d="M23.98,8.81c0-0.68-0.01-1.27-0.05-1.81h0.92l0.04,1.14h0.05c0.26-0.78,0.9-1.27,1.61-1.27c0.12,0,0.2,0.01,0.3,0.04v1
			c-0.11-0.02-0.22-0.04-0.36-0.04c-0.74,0-1.27,0.56-1.42,1.36c-0.02,0.14-0.05,0.31-0.05,0.49v3.09h-1.04V8.81z"/>
	</g>
</g>
</svg>
